X:474
T:Reel 474
M:4/4
K:Dmaj
L:1/8
AG|F>D (3DDD FABc|dBcA BAGF|G>E (3EEE BEGA|BABc dBAG|F>D (3DDD FAdA|FAdA B2GF|GABc dedB|AGFE D2| (3ABc |d2fd Adfd|ddfd cdec|d2fd Adfd|Bdce dcBc|d2fd Adfd|Adfd cdec|dedB cBAG|FDEC D2|
